X:14
T:Bury Me Beneath the Willow
M:4/4
C: Traditional
R: Ballad
Q:108
L:1/8
K:G
 |: "G"d3 e d2 B-A| "C"G3 A G2 E2| "G"D2 GA BB cB|"D" A8| 
|"G" d3 e d2 B-A | "C" G3 A G2 E2| "G"D2 G2 "D" FG AF| "G"G8:||


